X:150
T: Barn Owl
C: Paddy Fahey (as "gan ainm")
S: "Dervish: Live in Palma" (tune 3 in Killavil Set)
Z: B.Black
M: 6/8
L: 1/8
R: jig
K: D
A | DFA dfe | dcA GFG | AFD =cBc | ed^c A/2B/2cA |
DFA dfe | dcA GFG | AdB cAG | E2 D D2 :|
A | d2 e fed | c2 A A2 B | =cBc edc | B2 G GAB |
d2 e fed | c2 A EFG | AdB cAG | E2 D D2 :|
